X: 11893
T: Emma's
R: reel
M: 4/4
K: Dmajor
|:"D" Addc d2 Ad|"D"fage fddc|"Em"Beef g2 ed|1 "A7"cedB cAA2:|2 "A7"cage "D"d4||
|:"D"Aaag a2 Ad|"D"fage fddc|"Em"Bggf g2 ed|1 "A7"cedB cAA2:|2 "A7"cage "D"d2f2||
|:"D"Adde fddf|"D"Adfd dc c2|"A7"Acef g2 ed|1 "A7"cage d2 f2:|2 "A7"cage "D"d3f||
|:"D"fefg afdf|"D"Adfd dc c2|"A7"Acef geed|1 "A7"cage d2 f2:|2 "A7"cage "D"d4||

